ALY_Tests/ALY_Button_Style/ALY_Button_Style/Assets/Icons/RefreshIcon.svg

<?xml version="1.0" encoding="UTF-8" standalone="no"?>
<svg
   overflow="visible"
   version="1.1"
   id="svg328"
   xmlns="http://www.w3.org/2000/svg"
   xmlns:svg="http://www.w3.org/2000/svg">
  <defs
     id="defs332" />
  <svg
     width="15"
     height="15"
     version="1.1"
     id="svg326">
    <path
       d="M 6.89392,22.8615L 0,10.9208L 4.35387,10.9208C 5.3424,4.73047 10.7064,0 17.1752,0C 24.3462,0 30.1595,5.81329 30.1595,12.9844C 30.1595,20.1555 24.3462,25.9688 17.1752,25.9688C 16.3945,25.9688 15.6299,25.8998 14.8871,25.7678L 17.6208,21.2225C 21.97,20.991 25.4252,17.3912 25.4252,12.9844C 25.4252,8.42804 21.7315,4.73438 17.1752,4.73438C 13.3314,4.73438 10.1015,7.3631 9.18535,10.9208L 13.7878,10.9208L 6.89392,22.8615 Z "
       fill="#FFFFFF"
       stroke="Black"
       stroke-width="1"
       stroke-linejoin="Round"
       id="path324" />
  </svg>
</svg>

<svg xmlns="http://www.w3.org/2000/svg" id="refreshIcon" viewBox="0 -1 31.5 28">
    <path
        d="m6.8939 22.862-6.8939-11.941h4.3539c0.98853-6.1903 6.3525-10.921 12.821-10.921 7.171 0 12.984 5.8133 12.984 12.984 0 7.1711-5.8133 12.984-12.984 12.984-0.7807 0-1.5453-0.069-2.2881-0.201l2.7337-4.5453c4.3492-0.2315 7.8044-3.8313 7.8044-8.2381 0-4.5564-3.6937-8.25-8.25-8.25-3.8438 0-7.0737 2.6287-7.9898 6.1864h4.6024l-6.8939 11.941z"
        fill="#FFFFFF" stroke="Black" stroke-width="1" stroke-linejoin="Round" />
</svg>
